docs/img/buttery.svg

<svg width="25" height="12" viewBox="0 0 25 12" fill="none" xmlns="http://www.w3.org/2000/svg">
<path opacity="0.35" d="M0.5 3.00004C0.5 1.80342 1.47005 0.833374 2.66667 0.833374H19.3333C20.53 0.833374 21.5 1.80342 21.5 3.00004V9.00004C21.5 10.1967 20.53 11.1667 19.3333 11.1667H2.66667C1.47005 11.1667 0.5 10.1967 0.5 9.00004V3.00004Z" stroke="black"/>
<path opacity="0.4" d="M23 4.00003V8.00003C23.8047 7.66125 24.328 6.87316 24.328 6.00003C24.328 5.1269 23.8047 4.33881 23 4.00003Z" fill="black"/>
<path d="M2 3.66671C2 2.93033 2.59695 2.33337 3.33333 2.33337H18.6667C19.403 2.33337 20 2.93033 20 3.66671V8.33337C20 9.06975 19.403 9.66671 18.6667 9.66671H3.33333C2.59695 9.66671 2 9.06975 2 8.33337V3.66671Z" fill="black"/>
</svg>

<svg width="25" height="12" fill="none" xmlns="http://www.w3.org/2000/svg"><path opacity=".35" d="M.5 3C.5 1.803 1.47.833 2.667.833h16.666C20.53.833 21.5 1.803 21.5 3v6c0 1.197-.97 2.167-2.167 2.167H2.667A2.167 2.167 0 0 1 .5 9V3Z" stroke="#000"/><path opacity=".4" d="M23 4v4a2.17 2.17 0 0 0 0-4Z" fill="#000"/><path d="M2 3.667c0-.737.597-1.334 1.333-1.334h15.334c.736 0 1.333.597 1.333 1.334v4.666c0 .737-.597 1.334-1.333 1.334H3.333A1.333 1.333 0 0 1 2 8.333V3.667Z" fill="#000"/></svg>
